_icons/SVG/102-exeggcute-shiny.svg

<svg xmlns="http://www.w3.org/2000/svg" width="32" height="32"><path fill="#FFD04D" d="M23 20V8s-3.571-.044-4.809 5.734C16.85 20 23 20 23 20z"/><path fill="#F7C845" d="M23 20V8s3.571-.044 4.809 5.734C29.15 20 23 20 23 20z"/><path fill="#B38658" d="M23.806 9.772l-.647-.293 1.239-1.095a4.09 4.09 0 00-.515-.212l-1.345 1.189a.25.25 0 00.062.415l.999.452a.251.251 0 00.331-.125.25.25 0 00-.124-.331z"/><path fill="#FFE28A" d="M16 21V7s-4.285-.052-5.77 6.69C8.62 21 16 21 16 21z"/><path fill="#FFD96C" d="M16 21V7s4.285-.052 5.77 6.69C23.38 21 16 21 16 21z"/><path fill="#F7F7F7" d="M18.021 13.319l-.334.223c-.206.137-.109.458.139.458h.674c-.239 0-.43-.295-.479-.681zm.904-.603c.044.127.075.267.075.425 0 .474-.224.859-.5.859h1.25a.25.25 0 00.25-.25v-1.283a.25.25 0 00-.389-.208l-.686.457z"/><path fill="#2B3332" d="M19 13.141c0-.158-.031-.297-.075-.424l-.904.603c.049.385.24.68.479.68.276 0 .5-.385.5-.859z"/><path fill="#FFF" d="M13.979 13.319L15 14h-1.5c.239 0 .43-.295.479-.681zm-.904-.603a1.281 1.281 0 00-.075.425c0 .474.224.859.5.859H12v-2l1.075.716z"/><path fill="#373F3F" d="M13 13.141c0-.158.031-.297.075-.424l.904.603c-.049.385-.24.68-.479.68-.276 0-.5-.385-.5-.859zm.176 2.682a.25.25 0 00-.354.354c.045.044 1.098 1.073 3.178 1.073v-.5c-1.861 0-2.814-.918-2.824-.927z"/><path fill="#2B3332" d="M19.177 15.824a.25.25 0 00-.354-.001c-.009.009-.962.927-2.823.927v.5c2.08 0 3.133-1.029 3.177-1.073a.25.25 0 000-.353z"/><path fill="#C09265" d="M17.468 8.427a.261.261 0 00-.047-.041l-.991-.669.412-.582a4.22 4.22 0 00-.535-.11l-.406.572-1.944 1.255a.249.249 0 00-.105.143l-.219.781a.25.25 0 10.482.134l.193-.69 1.766-1.14 1.04.703.745.836a.25.25 0 10.373-.332l-.764-.86z"/><path fill="#FFE28A" d="M6 22V8S1.715 7.948.23 14.69C-1.38 22 6 22 6 22z"/><path fill="#FFD96C" d="M6 22V8s4.285-.052 5.77 6.69C13.38 22 6 22 6 22z"/><path fill="#F7F7F7" d="M8.021 14.319L7 15h1.5c-.239 0-.43-.295-.479-.681zm.904-.603c.044.127.075.267.075.425 0 .474-.224.859-.5.859H10v-2l-1.075.716z"/><path fill="#2B3332" d="M9 14.141c0-.158-.031-.297-.075-.424l-.904.603c.049.385.24.68.479.68.276 0 .5-.385.5-.859z"/><path fill="#FFF" d="M3.979 14.319l.334.223c.206.137.109.458-.139.458H3.5c.239 0 .43-.295.479-.681zm-.904-.603a1.281 1.281 0 00-.075.425c0 .474.224.859.5.859H2.25a.25.25 0 01-.25-.25v-1.283c0-.2.223-.319.389-.208l.686.457z"/><path fill="#373F3F" d="M3 14.141c0-.158.031-.297.075-.424l.904.603c-.049.385-.24.68-.479.68-.276 0-.5-.385-.5-.859zm3 2.609c-1.73 0-1.75.959-1.75 1 0 .134.107.24.241.245.144.024.249-.102.259-.236.013-.176.291-.509 1.25-.509l.031.001v-.499L6 16.75z"/><path fill="#2B3332" d="M7.25 17.75a.25.25 0 00.5 0c0-.041-.024-.985-1.719-.998v.499c.932.008 1.206.334 1.219.499z"/><path fill="#C09265" d="M3.985 12.938a.25.25 0 01-.248-.28l.156-1.297a.248.248 0 01.079-.154l.806-.738-.382-.868a.251.251 0 01.128-.33.249.249 0 01.329.128l.453 1.031a.25.25 0 01-.06.285l-.869.797-.145 1.205a.25.25 0 01-.247.221z"/><path fill="#FEF1C6" d="M26 25V11s-4.285-.052-5.77 6.69C18.62 25 26 25 26 25z"/><path fill="#FFEAA7" d="M26 25V11s4.285-.052 5.77 6.69C33.38 25 26 25 26 25z"/><path fill="#F7F7F7" d="M28.021 17.319l-.334.223c-.206.137-.109.458.139.458h.674c-.239 0-.43-.295-.479-.681zm.904-.603c.044.127.075.267.075.425 0 .474-.224.859-.5.859h1.25a.25.25 0 00.25-.25v-1.283a.25.25 0 00-.389-.208l-.686.457z"/><path fill="#2B3332" d="M29 17.141c0-.158-.031-.297-.075-.424l-.904.603c.049.385.24.68.479.68.276 0 .5-.385.5-.859z"/><path fill="#FFF" d="M23.979 17.319l.334.223c.206.137.109.458-.139.458H23.5c.239 0 .43-.295.479-.681zm-.904-.603a1.281 1.281 0 00-.075.425c0 .474.224.859.5.859h-1.25a.25.25 0 01-.25-.25v-1.283c0-.2.223-.319.389-.208l.686.457z"/><path fill="#373F3F" d="M23 17.141c0-.158.031-.297.075-.424l.904.603c-.049.385-.24.68-.479.68-.276 0-.5-.385-.5-.859zm2.002 3.411a.25.25 0 00-.068.495 4.933 4.933 0 001.065.015v-.5c-.525.048-.987-.009-.997-.01z"/><path fill="#2B3332" d="M27.637 20.049a.252.252 0 00-.353.017c-.299.33-.816.454-1.284.496v.5c.574-.048 1.242-.207 1.654-.661a.249.249 0 00-.017-.352z"/><path fill="#CDA073" d="M21.481 21.52l1.354.684.06 1.278c0 .009.006.017.007.026a.222.222 0 00.039.099c.006.009.009.02.016.028.006.007.015.01.022.016.006.006.01.014.017.02.654.484 1.164.861 1.564 1.155.436.091.808.134 1.066.155a251.005 251.005 0 01-2.083-1.527l1.263-1.109a.25.25 0 10-.33-.376l-1.106.971-.042-.904a.252.252 0 00-.137-.212l-1.484-.75a.25.25 0 00-.226.446z"/><path fill="#FEF1C6" d="M11 25V11s-4.285-.052-5.77 6.69C3.62 25 11 25 11 25z"/><path fill="#FFEAA7" d="M11 25V11s4.285-.052 5.77 6.69C18.38 25 11 25 11 25z"/><path fill="#CDA073" d="M12.754 16.311l.346-1.227a.253.253 0 00-.041-.219l-1.09-1.439.711-.737a.25.25 0 00.066-.219l-.199-1.081a4.912 4.912 0 00-.547-.207l.231 1.253-.664.688-1.331-.406-.119-1.57c-.15.042-.314.098-.489.168l.122 1.61a.25.25 0 00.176.22l1.563.476 1.095 1.446-.341 1.208a.248.248 0 00.024.192l1.594 2.781a.249.249 0 00.341.093.25.25 0 00.093-.341l-1.541-2.689z"/><path fill="#F7F7F7" d="M13.021 17.319l-.334.223c-.206.137-.109.458.139.458h.674c-.239 0-.43-.295-.479-.681zm.904-.603c.044.127.075.267.075.425 0 .474-.224.859-.5.859h1.25a.25.25 0 00.25-.25v-1.283a.25.25 0 00-.389-.208l-.686.457z"/><path fill="#2B3332" d="M14 17.141c0-.158-.031-.297-.075-.424l-.904.603c.049.385.24.68.479.68.276 0 .5-.385.5-.859z"/><path fill="#FFF" d="M8.979 17.319l.334.223c.206.137.109.458-.139.458H8.5c.239 0 .43-.295.479-.681zm-.904-.603a1.281 1.281 0 00-.075.425c0 .474.224.859.5.859H7.25a.25.25 0 01-.25-.25v-1.283c0-.2.223-.319.389-.208l.686.457z"/><path fill="#373F3F" d="M8 17.141c0-.158.031-.297.075-.424l.904.603c-.049.385-.24.68-.479.68-.276 0-.5-.385-.5-.859zm1.25 3.609c0 .134.107.24.241.245.144.024.249-.102.259-.236.013-.176.291-.508 1.25-.508v-.5c-1.73-.001-1.75.958-1.75.999z"/><path fill="#2B3332" d="M12.25 20.75a.25.25 0 00.5 0c0-.041-.02-1-1.75-1v.5c.959 0 1.237.333 1.25.5z"/></svg>

<?xml version="1.0" encoding="utf-8"?>
<!-- Generator: Adobe Illustrator 23.0.6, SVG Export Plug-In . SVG Version: 6.00 Build 0)  -->
<svg version="1.1" xmlns="http://www.w3.org/2000/svg" xmlns:xlink="http://www.w3.org/1999/xlink" x="0px" y="0px" width="32px"
	 height="32px" viewBox="0 0 32 32" enable-background="new 0 0 32 32" xml:space="preserve">
<g id="icons">
	<g>
		<g>
			<path fill="#FFD04D" d="M23,20V8c0,0-3.571-0.044-4.809,5.734C16.85,20,23,20,23,20z"/>
			<path fill="#F7C845" d="M23,20V8c0,0,3.571-0.044,4.809,5.734C29.15,20,23,20,23,20z"/>
			<path fill="#B38658" d="M23.806,9.772l-0.647-0.293l1.239-1.095c-0.184-0.09-0.357-0.16-0.515-0.212l-1.345,1.189
				c-0.064,0.056-0.094,0.141-0.082,0.224c0.013,0.084,0.067,0.156,0.144,0.191l0.999,0.452c0.033,0.015,0.068,0.022,0.103,0.022
				c0.095,0,0.186-0.055,0.228-0.147C23.987,9.977,23.931,9.829,23.806,9.772z"/>
		</g>
		<g>
			<path fill="#FFE28A" d="M16,21V7c0,0-4.285-0.052-5.77,6.69C8.62,21,16,21,16,21z"/>
			<path fill="#FFD96C" d="M16,21V7c0,0,4.285-0.052,5.77,6.69C23.38,21,16,21,16,21z"/>
			<g>
				<g>
					<path fill="#F7F7F7" d="M18.021,13.319l-0.334,0.223C17.481,13.679,17.578,14,17.826,14H18.5
						C18.261,14,18.07,13.705,18.021,13.319z"/>
					<path fill="#F7F7F7" d="M18.925,12.716C18.969,12.843,19,12.983,19,13.141C19,13.615,18.776,14,18.5,14h1.25
						c0.138,0,0.25-0.112,0.25-0.25v-1.283c0-0.2-0.223-0.319-0.389-0.208L18.925,12.716z"/>
					<path fill="#2B3332" d="M19,13.141c0-0.158-0.031-0.297-0.075-0.424l-0.904,0.603C18.07,13.705,18.261,14,18.5,14
						C18.776,14,19,13.615,19,13.141z"/>
				</g>
				<g>
					<path fill="#FFFFFF" d="M13.979,13.319L15,14h-1.5C13.739,14,13.93,13.705,13.979,13.319z"/>
					<path fill="#FFFFFF" d="M13.075,12.716C13.031,12.843,13,12.983,13,13.141C13,13.615,13.224,14,13.5,14H12v-2L13.075,12.716z"
						/>
					<path fill="#373F3F" d="M13,13.141c0-0.158,0.031-0.297,0.075-0.424l0.904,0.603C13.93,13.705,13.739,14,13.5,14
						C13.224,14,13,13.615,13,13.141z"/>
				</g>
			</g>
			<g>
				<path fill="#373F3F" d="M13.176,15.823c-0.098-0.097-0.256-0.097-0.354,0.001c-0.097,0.098-0.097,0.255,0,0.353
					C12.867,16.221,13.92,17.25,16,17.25v-0.5C14.139,16.75,13.186,15.832,13.176,15.823z"/>
				<path fill="#2B3332" d="M19.177,15.824c-0.098-0.099-0.256-0.098-0.354-0.001C18.814,15.832,17.861,16.75,16,16.75v0.5
					c2.08,0,3.133-1.029,3.177-1.073C19.274,16.08,19.274,15.922,19.177,15.824z"/>
			</g>
			<path fill="#C09265" d="M17.468,8.427c-0.014-0.016-0.03-0.029-0.047-0.041L16.43,7.717l0.412-0.582
				c-0.214-0.058-0.395-0.091-0.535-0.11l-0.406,0.572l-1.944,1.255c-0.051,0.033-0.089,0.084-0.105,0.143l-0.219,0.781
				c-0.037,0.133,0.04,0.271,0.173,0.308c0.022,0.006,0.045,0.009,0.068,0.009c0.109,0,0.21-0.072,0.241-0.183l0.193-0.69
				l1.766-1.14l1.04,0.703l0.745,0.836c0.049,0.056,0.118,0.084,0.187,0.084c0.059,0,0.119-0.021,0.166-0.063
				c0.103-0.092,0.112-0.25,0.02-0.353L17.468,8.427z"/>
		</g>
		<g>
			<path fill="#FFE28A" d="M6,22V8c0,0-4.285-0.052-5.77,6.69C-1.38,22,6,22,6,22z"/>
			<path fill="#FFD96C" d="M6,22V8c0,0,4.285-0.052,5.77,6.69C13.38,22,6,22,6,22z"/>
			<g>
				<g>
					<path fill="#F7F7F7" d="M8.021,14.319L7,15h1.5C8.261,15,8.07,14.705,8.021,14.319z"/>
					<path fill="#F7F7F7" d="M8.925,13.716C8.969,13.843,9,13.983,9,14.141C9,14.615,8.776,15,8.5,15H10v-2L8.925,13.716z"/>
					<path fill="#2B3332" d="M9,14.141c0-0.158-0.031-0.297-0.075-0.424l-0.904,0.603C8.07,14.705,8.261,15,8.5,15
						C8.776,15,9,14.615,9,14.141z"/>
				</g>
				<g>
					<path fill="#FFFFFF" d="M3.979,14.319l0.334,0.223C4.519,14.679,4.422,15,4.174,15H3.5C3.739,15,3.93,14.705,3.979,14.319z"/>
					<path fill="#FFFFFF" d="M3.075,13.716C3.031,13.843,3,13.983,3,14.141C3,14.615,3.224,15,3.5,15H2.25
						C2.112,15,2,14.888,2,14.75v-1.283c0-0.2,0.223-0.319,0.389-0.208L3.075,13.716z"/>
					<path fill="#373F3F" d="M3,14.141c0-0.158,0.031-0.297,0.075-0.424l0.904,0.603C3.93,14.705,3.739,15,3.5,15
						C3.224,15,3,14.615,3,14.141z"/>
				</g>
			</g>
			<g>
				<path fill="#373F3F" d="M6,16.75c-1.73,0-1.75,0.959-1.75,1c0,0.134,0.107,0.24,0.241,0.245
					c0.144,0.024,0.249-0.102,0.259-0.236C4.763,17.583,5.041,17.25,6,17.25c0.011,0,0.02,0.001,0.031,0.001v-0.499
					C6.02,16.752,6.012,16.75,6,16.75z"/>
				<path fill="#2B3332" d="M7.25,17.75C7.25,17.888,7.362,18,7.5,18s0.25-0.112,0.25-0.25c0-0.041-0.024-0.985-1.719-0.998v0.499
					C6.963,17.259,7.237,17.585,7.25,17.75z"/>
			</g>
			<path fill="#C09265" d="M3.985,12.938c-0.01,0-0.02-0.001-0.03-0.002c-0.137-0.016-0.235-0.141-0.218-0.278l0.156-1.297
				c0.007-0.059,0.035-0.114,0.079-0.154l0.806-0.738L4.396,9.601C4.341,9.474,4.398,9.327,4.524,9.271
				c0.127-0.056,0.274,0.002,0.329,0.128l0.453,1.031c0.043,0.098,0.019,0.213-0.06,0.285l-0.869,0.797l-0.145,1.205
				C4.217,12.844,4.109,12.938,3.985,12.938z"/>
		</g>
		<g>
			<path fill="#FEF1C6" d="M26,25V11c0,0-4.285-0.052-5.77,6.69C18.62,25,26,25,26,25z"/>
			<path fill="#FFEAA7" d="M26,25V11c0,0,4.285-0.052,5.77,6.69C33.38,25,26,25,26,25z"/>
			<g>
				<g>
					<path fill="#F7F7F7" d="M28.021,17.319l-0.334,0.223C27.481,17.679,27.578,18,27.826,18H28.5
						C28.261,18,28.07,17.705,28.021,17.319z"/>
					<path fill="#F7F7F7" d="M28.925,16.716C28.969,16.843,29,16.983,29,17.141C29,17.615,28.776,18,28.5,18h1.25
						c0.138,0,0.25-0.112,0.25-0.25v-1.283c0-0.2-0.223-0.319-0.389-0.208L28.925,16.716z"/>
					<path fill="#2B3332" d="M29,17.141c0-0.158-0.031-0.297-0.075-0.424l-0.904,0.603C28.07,17.705,28.261,18,28.5,18
						C28.776,18,29,17.615,29,17.141z"/>
				</g>
				<g>
					<path fill="#FFFFFF" d="M23.979,17.319l0.334,0.223C24.519,17.679,24.422,18,24.174,18H23.5
						C23.739,18,23.93,17.705,23.979,17.319z"/>
					<path fill="#FFFFFF" d="M23.075,16.716C23.031,16.843,23,16.983,23,17.141C23,17.615,23.224,18,23.5,18h-1.25
						C22.112,18,22,17.888,22,17.75v-1.283c0-0.2,0.223-0.319,0.389-0.208L23.075,16.716z"/>
					<path fill="#373F3F" d="M23,17.141c0-0.158,0.031-0.297,0.075-0.424l0.904,0.603C23.93,17.705,23.739,18,23.5,18
						C23.224,18,23,17.615,23,17.141z"/>
				</g>
			</g>
			<g>
				<path fill="#373F3F" d="M25.002,20.552c-0.137-0.018-0.263,0.077-0.281,0.214c-0.019,0.137,0.077,0.263,0.213,0.281
					c0.028,0.004,0.279,0.037,0.628,0.037c0.132,0,0.284-0.009,0.437-0.022v-0.5C25.474,20.61,25.012,20.553,25.002,20.552z"/>
				<path fill="#2B3332" d="M27.637,20.049c-0.101-0.092-0.26-0.084-0.353,0.017c-0.299,0.33-0.816,0.454-1.284,0.496v0.5
					c0.574-0.048,1.242-0.207,1.654-0.661C27.747,20.299,27.739,20.141,27.637,20.049z"/>
			</g>
			<path fill="#CDA073" d="M21.481,21.52l1.354,0.684l0.06,1.278c0,0.009,0.006,0.017,0.007,0.026
				c0.003,0.021,0.008,0.041,0.017,0.061c0.006,0.014,0.013,0.025,0.022,0.038c0.006,0.009,0.009,0.02,0.016,0.028
				c0.006,0.007,0.015,0.01,0.022,0.016c0.006,0.006,0.01,0.014,0.017,0.02c0.654,0.484,1.164,0.861,1.564,1.155
				c0.436,0.091,0.808,0.134,1.066,0.155c-0.558-0.403-1.409-1.028-2.083-1.527l1.263-1.109c0.104-0.091,0.114-0.249,0.023-0.353
				c-0.091-0.104-0.249-0.114-0.353-0.023l-1.106,0.971l-0.042-0.904c-0.004-0.09-0.057-0.171-0.137-0.212l-1.484-0.75
				c-0.124-0.062-0.274-0.013-0.336,0.11C21.308,21.307,21.358,21.458,21.481,21.52z"/>
		</g>
		<g>
			<path fill="#FEF1C6" d="M11,25V11c0,0-4.285-0.052-5.77,6.69C3.62,25,11,25,11,25z"/>
			<path fill="#FFEAA7" d="M11,25V11c0,0,4.285-0.052,5.77,6.69C18.38,25,11,25,11,25z"/>
			<path fill="#CDA073" d="M12.754,16.311l0.346-1.227c0.021-0.075,0.006-0.156-0.041-0.219l-1.09-1.439l0.711-0.737
				c0.056-0.058,0.081-0.14,0.066-0.219l-0.199-1.081c-0.195-0.087-0.379-0.155-0.547-0.207l0.231,1.253l-0.664,0.688l-1.331-0.406
				l-0.119-1.57c-0.15,0.042-0.314,0.098-0.489,0.168l0.122,1.61c0.008,0.103,0.078,0.19,0.176,0.22l1.563,0.476l1.095,1.446
				l-0.341,1.208c-0.018,0.065-0.01,0.134,0.024,0.192l1.594,2.781c0.046,0.081,0.13,0.126,0.217,0.126
				c0.042,0,0.085-0.011,0.124-0.033c0.12-0.069,0.161-0.221,0.093-0.341L12.754,16.311z"/>
			<g>
				<g>
					<path fill="#F7F7F7" d="M13.021,17.319l-0.334,0.223C12.481,17.679,12.578,18,12.826,18H13.5
						C13.261,18,13.07,17.705,13.021,17.319z"/>
					<path fill="#F7F7F7" d="M13.925,16.716C13.969,16.843,14,16.983,14,17.141C14,17.615,13.776,18,13.5,18h1.25
						c0.138,0,0.25-0.112,0.25-0.25v-1.283c0-0.2-0.223-0.319-0.389-0.208L13.925,16.716z"/>
					<path fill="#2B3332" d="M14,17.141c0-0.158-0.031-0.297-0.075-0.424l-0.904,0.603C13.07,17.705,13.261,18,13.5,18
						C13.776,18,14,17.615,14,17.141z"/>
				</g>
				<g>
					<path fill="#FFFFFF" d="M8.979,17.319l0.334,0.223C9.519,17.679,9.422,18,9.174,18H8.5C8.739,18,8.93,17.705,8.979,17.319z"/>
					<path fill="#FFFFFF" d="M8.075,16.716C8.031,16.843,8,16.983,8,17.141C8,17.615,8.224,18,8.5,18H7.25
						C7.112,18,7,17.888,7,17.75v-1.283c0-0.2,0.223-0.319,0.389-0.208L8.075,16.716z"/>
					<path fill="#373F3F" d="M8,17.141c0-0.158,0.031-0.297,0.075-0.424l0.904,0.603C8.93,17.705,8.739,18,8.5,18
						C8.224,18,8,17.615,8,17.141z"/>
				</g>
			</g>
			<g>
				<path fill="#373F3F" d="M9.25,20.75c0,0.134,0.107,0.24,0.241,0.245c0.144,0.024,0.249-0.102,0.259-0.236
					c0.013-0.176,0.291-0.508,1.25-0.508v-0.5C9.27,19.75,9.25,20.709,9.25,20.75z"/>
				<path fill="#2B3332" d="M12.25,20.75c0,0.138,0.112,0.25,0.25,0.25s0.25-0.112,0.25-0.25c0-0.041-0.02-1-1.75-1v0.5
					C11.959,20.25,12.237,20.583,12.25,20.75z"/>
			</g>
		</g>
	</g>
</g>
<g id="labels">
</g>
</svg>
